src/assets/buttons/bountiesnetwork.svg

<svg height="55" viewBox="0 0 55 55" width="55" xmlns="http://www.w3.org/2000/svg"><g fill="none" fill-rule="evenodd"><rect fill="#141414" fill-rule="nonzero" height="55" rx="2" width="55"/><path d="m11.746012 17.9388069c.2322915-.0153927.4868806-.1110285.6226731-.1998879.1847551-.1187079-.2540635-.3800516-.4157494-.4274933-.1076669-.0170463-.2361173.0086618-.3523512.0574134.0951752.1209831.1550989.1980756.1550989.1980756s.155483.1080595.2443166 0c-.0775639.1179127-.1721142.2359153-.253988.3718922zm-.1650772-.0044753c-.0702883-.0401311-.1667865-.0973946-.2840235-.1682643.0578374.10085.1614888.1514015.2840235.1682643zm-.9222855-.5603996c-1.38196468-.8576632-3.63439616-2.2928579-3.63439616-2.2928579-.04446523 0-.02228105-.0810741.02218418-.0810741.7108625.1080595 2.68787011.432356 3.33198628.9186828.1137478.0830315.4721432.5132222.7948053.9132588.5239118-.4353275 1.0548253-.5573888 1.5650671-.6368462.4157494-.0712662 1.085663.1425323 1.3859656.4513177.1155475.094987.207925.1661496.2309942.1424287.8777379-.6412917 1.8017149-.7601032 2.5870753-.783824.2541642-.0237209-.3695103.0237208-1.1318014.4274933-.6930835.4513177-1.9404323 1.0213433-3.1183721 4.0616523-.2541642.6412918-.5082276 1.6151934-.6929828 2.1139528-.9702161.6651162-2.07904901 1.5913689-2.49479837 1.3538496-1.24734884-.7599996.1155475-4.9640807.90090787-6.2229433.0839366-.1333908.1684327-.254686.253365-.3650905zm17.3724438 20.7055199c-.2111859-.1649838-.4739846-.37535-.5659721-.470488-.1860078-.1682522-.3488915-.2885673-.465121-.4569245 3.3954036.7455968 5.4885495-1.9723488 6.2559078-4.0167607.7675612-2.0685379.7907869-2.2849372 1.0697986-2.0685379.1628836.1443361.813911.8418907 1.3022577.9621009.5116736.1443361.9534676.1683571 1.279032-.1923783.0930039-.096294.0930039.3848614.0930039.5531137-.0464512.9140587-.3022374 2.3572101-.5813505 3.1028068-.441794 1.1785002-1.8837096 5.1230929-5.2557862 4.4255383-.2861661-.0601822-.5763775-.1653501-.8565-.2941221-.1211306.4589661-.222836.9447981-.1499496 1.0670358.7107893 1.1436322 3.9943561 2.8029012 4.827511 3.1391945.0244731 0 .0244731.0672783-.0244731.0672783l-.5391569.0897695c-.4655237.0223935-1.2987855.0447869-1.6908899-.2018347-1.0291537-.6502911-2.842623-2.1750036-3.4061461-2.8926707-.3495005-.4397374-1.1272747-2.3936995-1.2921656-2.8131209zm-3.0310931-20.2949487s1.2-.9310501 3-1.7845032c-.9461926 1.5258844-1.2461926 2.2241438-1.6153304 3zm-12-1.972021c-.0756606.0208252-.1514314.0625665-.201982.104126-.0252202.0208252-.0756606.0625666-.1262112.0833918l-1.6667367-3.9410575c-.0252202-.0416504.0505506-.0833917.0757708-.0416504.4545145.6255748 1.4646446 2.0435989 1.7171771 2.6482575.100991.2294411.1767618.8550159.201982 1.1469326zm30.5591392-7.44059999c.3882745.49619351.5025256 1.11058722.4110849 1.84297499-.1826823 2.9064677-2.8092625 7.4434179-4.5908626 8.6012028-3.8143135 2.4574718-9.3187865 2.1739768-9.3187865 2.1739768s-1.1877334-.7088921-1.941472-1.1578879c-.3197437-.1653979-1.119103-.6615914-1.119103-.6615914s1.7816001-4.8203422 6.2354011-8.412103c1.4389464-1.27608812 3.0833854-2.38667534 5.2075396-3.21366452 2.0328131-.80339036 3.3118876-.63799253 4.2254981-.02359882.3425541.18909971.5937671.47259469.8907004.85069105zm3.4379041 7.06501819c.1403287 2.4319474-4.7505597 3.8861737-6.9970433 4.5630996 2.4571298-1.5043041 3.6037427-4.1368911 4.3526386-5.8417254.2340172-.5516219 2.5975605.4512475 2.6444047 1.2786258zm-20.0407586 8.1610746c2.9362809-1.4967109 4.712218.2338802 5.0437153.6783852-.0946987-.0468169-.6629945-.0935317-.9944918-.0701743-.8998963 0-2.0838888.2338802-3.4809277 1.2629327-2.2259887 1.6371614-3.4099812 4.279916-3.8124251 7.5308814-.2605506-.5847515-.2841995-.7016406-.473597-1.3565664-.1420998-.4677604-.2131496-1.0290525-.2367985-1.5904466-.047401-2.0112881.852392-4.9113823 3.9545248-6.455012zm6.730413 2.2299119c1.1108991.9871479 4.4435967 4.9356394 2.9223768 5.2570131-.5555549.1147334-1.0143222-.0919069-1.5938897-.6428475-.4347546-.4361072-1.1108992-1.4462818-1.4490768-1.2625682-.1931541.0918067-.8934165 1.9283424-1.3281712 2.8925636-.845286 1.8364355-2.9462841 4.5223588-6.0131578 3.8107313-1.0626634-.2523935-1.4249589-.9182678-2.2217984-2.0430758-.0242233-.0229267.096577-1.3315484.4587672-2.3645496.9417578-2.7317766 2.1733519-4.7289991 4.5883044-5.8768339 1.4248535-.665674 2.75313-.6427474 3.4533925-.5509406.4587672.2524936.6279087.2754202 1.183253.7805076zm-3.6958754 21.0469697c.0234144.0237007 0 .0712055-.0472397.0712055l-.6593022.0474014c-.5887507.0475049-1.1538816-.1661118-1.577704-.569541-1.0596075-1.0441758-3.0847538-3.0614252-3.6028503-4.105601-.5651309-1.1153814-.7299564-3.7258725-1.2480529-4.8649546-.7534736-1.6376244-4.1208441-5.9092338-4.1208441-5.9092338s-1.0596075.2610181-1.4599128 1.0678765c-.3531683.7356528-.6593022 2.6816967-.3296511 3.4410503.1648256.3797285.3531683.8543632.4944767 1.1628862.4003052.8779604 1.318707 2.7290981 1.6483581 3.3935454.0706542.1187104.0941714.189916.0941714.189916l-.1176885-.1661119c-.1413084-.1660083-.6829221-.4033257-.6829221-.4033257-.0706542.1187105-.235377.4034292-.2118599.7119522 0 0-1.4600154-3.53606-1.8368036-4.7463476-.3532709-1.2102876-1.2950872-3.915685-1.1067445-5.1734775.0941714-.569541 1.0596075-1.2577925 1.0360904-1.82723-.0706542-1.2340918-1.6483582-2.4443793-2.4254516-3.2750419-.1176886-.118607-.2118599-.2373174-.2825141-.3559243-.2353771-.4034292-1.1066418-1.6849224-.0235172-4.6751421 1.6483582-4.5328344 5.2982428-4.8887587 5.8869935-4.8887587.4003053.0237007.7534736 0 1.0831247.0949063.3296511.0949062.635785.2136166.9654361.4034291 1.3187071.7119522 3.0612366 2.5630898 4.1679811 3.4173496.8712648.6644473 3.4145076 1.3526987 3.9796385 2.1595571-.9184018-.2848222-3.4145076-.6170459-6.0753363 2.9902197-2.0016291 2.7055009-1.1068472 6.3363637-1.036193 6.5973818.4474423 1.4950063 2.0722834 4.2716093 2.613897 5.7430185.2825141.7832612.588648 2.0647543.6593022 2.4206786.1413084.7831577-.3060312 2.4444829 0 3.1800322.4945794 1.2340918 3.6264702 3.464958 4.2151182 3.8682837zm-16.448613-20.960034c.1393163.1618951.2985969.3699882.4577907.5781823-.0198775 1.0871681-.2387907 1.4340573-.2387907 1.4340573-.1990357.4162872-1.3136528 1.6190515-1.6321272 1.9659406-.1990357.254493-.1591938.046299.0597194-.5318832.258755-.6708811.9950915-1.7810474.636862-2.8681147-.3382651-1.0638675-.3582294-2.5442238-.0994744-3.2843011 0-.0461981.0796837-.4856851.1194388.069398-.0597194 1.2258634.2985101 1.9428416.4179488 2.1972337.0398419.092598.1791582.3006911.2786326.4394871z" fill="#fff"/></g></svg>

<svg xmlns="http://www.w3.org/2000/svg" width="55" height="55" viewBox="0 0 55 55">
  <g fill="none" fill-rule="evenodd">
    <rect width="55" height="55" fill="#141414" fill-rule="nonzero" rx="2"/>
    <path fill="#FFF" d="M11.746012,17.9388069 C11.9783035,17.9234142 12.2328926,17.8277784 12.3686851,17.738919 C12.5534402,17.6202111 12.1146216,17.3588674 11.9529357,17.3114257 C11.8452688,17.2943794 11.7168184,17.3200875 11.6005845,17.3688391 C11.6957597,17.4898222 11.7556834,17.5669147 11.7556834,17.5669147 C11.7556834,17.5669147 11.9111664,17.6749742 12,17.5669147 C11.9224361,17.6848274 11.8278858,17.80283 11.746012,17.9388069 Z M11.5809348,17.9343316 C11.5106465,17.8942005 11.4141483,17.836937 11.2969113,17.7660673 C11.3547487,17.8669173 11.4584001,17.9174688 11.5809348,17.9343316 Z M10.6586493,17.373932 C9.27668462,16.5162688 7.02425314,15.0810741 7.02425314,15.0810741 C6.97978791,15.0810741 7.00197209,15 7.04643732,15 C7.75729982,15.1080595 9.73430743,15.432356 10.3784236,15.9186828 C10.4921714,16.0017143 10.8505668,16.431905 11.1732289,16.8319416 C11.6971407,16.3966141 12.2280542,16.2745528 12.738296,16.1950954 C13.1540454,16.1238292 13.823959,16.3376277 14.1242616,16.6464131 C14.2398091,16.7414001 14.3321866,16.8125627 14.3552558,16.7888418 C15.2329937,16.1475501 16.1569707,16.0287386 16.9423311,16.0050178 C17.1964953,15.9812969 16.5728208,16.0287386 15.8105297,16.4325111 C15.1174462,16.8838288 13.8700974,17.4538544 12.6921576,20.4941634 C12.4379934,21.1354552 12.18393,22.1093568 11.9991748,22.6081162 C11.0289587,23.2732324 9.92012579,24.1994851 9.50437643,23.9619658 C8.25702759,23.2019662 9.61992393,18.9978851 10.4052843,17.7390225 C10.4892209,17.6056317 10.573717,17.4843365 10.6586493,17.373932 Z M28.0310931,38.0794519 C27.8199072,37.9144681 27.5571085,37.7041019 27.465121,37.6089639 C27.2791132,37.4407117 27.1162295,37.3203966 27,37.1520394 C30.3954036,37.8976362 32.4885495,35.1796906 33.2559078,33.1352787 C34.023469,31.0667408 34.0466947,30.8503415 34.3257064,31.0667408 C34.48859,31.2110769 35.1396174,31.9086315 35.6279641,32.0288417 C36.1396377,32.1731778 36.5814317,32.1971988 36.9069961,31.8364634 C37,31.7401694 37,32.2213248 37,32.3895771 C36.9535488,33.3036358 36.6977626,34.7467872 36.4186495,35.4923839 C35.9768555,36.6708841 34.5349399,40.6154768 31.1628633,39.9179222 C30.8766972,39.85774 30.5864858,39.7525721 30.3063633,39.6238001 C30.1852327,40.0827662 30.0835273,40.5685982 30.1564137,40.6908359 C30.867203,41.8344681 34.1507698,43.4937371 34.9839247,43.8300304 C35.0083978,43.8300304 35.0083978,43.8973087 34.9594516,43.8973087 L34.4202947,43.9870782 C33.954771,44.0094717 33.1215092,44.0318651 32.7294048,43.7852435 C31.7002511,43.1349524 29.8867818,41.6102399 29.3232587,40.8925728 C28.9737582,40.4528354 28.195984,38.4988733 28.0310931,38.0794519 Z M25,17.7845032 C25,17.7845032 26.2,16.8534531 28,16 C27.0538074,17.5258844 26.7538074,18.2241438 26.3846696,19 L25,17.7845032 Z M13,15.8124822 C12.9243394,15.8333074 12.8485686,15.8750487 12.798018,15.9166082 C12.7727978,15.9374334 12.7223574,15.9791748 12.6718068,16 L11.0050701,12.0589425 C10.9798499,12.0172921 11.0556207,11.9755508 11.0808409,12.0172921 C11.5353554,12.6428669 12.5454855,14.060891 12.798018,14.6655496 C12.899009,14.8949907 12.9747798,15.5205655 13,15.8124822 Z M43.5591392,8.37188221 C43.9474137,8.86807572 44.0616648,9.48246943 43.9702241,10.2148572 C43.7875418,13.1213249 41.1609616,17.6582751 39.3793615,18.81606 C35.565048,21.2735318 30.060575,20.9900368 30.060575,20.9900368 C30.060575,20.9900368 28.8728416,20.2811447 28.119103,19.8321489 C27.7993593,19.666751 27,19.1705575 27,19.1705575 C27,19.1705575 28.7816001,14.3502153 33.2354011,10.7584545 C34.6743475,9.48236638 36.3187865,8.37177916 38.4429407,7.54478998 C40.4757538,6.74139962 41.7548283,6.90679745 42.6684388,7.52119116 C43.0109929,7.71029087 43.2622059,7.99378585 43.5591392,8.37188221 Z M46.9970433,15.4369004 C47.137372,17.8688478 42.2464836,19.3230741 40,20 C42.4571298,18.4956959 43.6037427,15.8631089 44.3526386,14.1582746 C44.5866558,13.6066527 46.9501991,14.6095221 46.9970433,15.4369004 Z M26.9562847,23.597975 C29.8925656,22.1012641 31.6685027,23.8318552 32,24.2763602 C31.9053013,24.2295433 31.3370055,24.1828285 31.0055082,24.2061859 C30.1056119,24.2061859 28.9216194,24.4400661 27.5245805,25.4691186 C25.2985918,27.10628 24.1145993,29.7490346 23.7121554,33 C23.4516048,32.4152485 23.4279559,32.2983594 23.2385584,31.6434336 C23.0964586,31.1756732 23.0254088,30.6143811 23.0017599,30.052987 C22.9543589,28.0416989 23.8541519,25.1416047 26.9562847,23.597975 Z M33.6866977,25.8278869 C34.7975968,26.8150348 38.1302944,30.7635263 36.6090745,31.0849 C36.0535196,31.1996334 35.5947523,30.9929931 35.0151848,30.4420525 C34.5804302,30.0059453 33.9042856,28.9957707 33.566108,29.1794843 C33.3729539,29.271291 32.6726915,31.1078267 32.2379368,32.0720479 C31.3926508,33.9084834 29.2916527,36.5944067 26.224779,35.8827792 C25.1621156,35.6303857 24.7998201,34.9645114 24.0029806,33.8397034 C23.9787573,33.8167767 24.0995576,32.508155 24.4617478,31.4751538 C25.4035056,28.7433772 26.6350997,26.7461547 29.0500522,25.5983199 C30.4749057,24.9326459 31.8031822,24.9555725 32.5034447,25.0473793 C32.9622119,25.2998729 33.1313534,25.3227995 33.6866977,25.8278869 Z M29.9908223,46.8748566 C30.0142367,46.8985573 29.9908223,46.9460621 29.9435826,46.9460621 L29.2842804,46.9934635 C28.6955297,47.0409684 28.1303988,46.8273517 27.7065764,46.4239225 C26.6469689,45.3797467 24.6218226,43.3624973 24.1037261,42.3183215 C23.5385952,41.2029401 23.3737697,38.592449 22.8556732,37.4533669 C22.1021996,35.8157425 18.7348291,31.5441331 18.7348291,31.5441331 C18.7348291,31.5441331 17.6752216,31.8051512 17.2749163,32.6120096 C16.921748,33.3476624 16.6156141,35.2937063 16.9452652,36.0530599 C17.1100908,36.4327884 17.2984335,36.9074231 17.4397419,37.2159461 C17.8400471,38.0939065 18.7584489,39.9450442 19.0881,40.6094915 C19.1587542,40.7282019 19.1822714,40.7994075 19.1822714,40.7994075 L19.0645829,40.6332956 C18.9232745,40.4672873 18.3816608,40.2299699 18.3816608,40.2299699 C18.3110066,40.3486804 18.1462838,40.6333991 18.1698009,40.9419221 C18.1698009,40.9419221 16.7097855,37.4058621 16.3329973,36.1955745 C15.9797264,34.9852869 15.0379101,32.2798895 15.2262528,31.022097 C15.3204242,30.452556 16.2858603,29.7643045 16.2623432,29.194867 C16.191689,27.9607752 14.613985,26.7504877 13.8368916,25.9198251 C13.719203,25.8012181 13.6250317,25.6825077 13.5543775,25.5639008 C13.3190004,25.1604716 12.4477357,23.8789784 13.5308603,20.8887587 C15.1792185,16.3559243 18.8291031,16 19.4178538,16 C19.8181591,16.0237007 20.1713274,16 20.5009785,16.0949063 C20.8306296,16.1898125 21.1367635,16.3085229 21.4664146,16.4983354 C22.7851217,17.2102876 24.5276512,19.0614252 25.6343957,19.915685 C26.5056605,20.5801323 29.0489033,21.2683837 29.6140342,22.0752421 C28.6956324,21.7904199 26.1995266,21.4581962 23.5386979,25.0654618 C21.5370688,27.7709627 22.4318507,31.4018255 22.5025049,31.6628436 C22.9499472,33.1578499 24.5747883,35.9344529 25.1164019,37.4058621 C25.398916,38.1891233 25.7050499,39.4706164 25.7757041,39.8265407 C25.9170125,40.6096984 25.4696729,42.2710236 25.7757041,43.0065729 C26.2702835,44.2406647 29.4021743,46.4715309 29.9908223,46.8748566 Z M13.5422093,25.9148226 C13.6815256,26.0767177 13.8408062,26.2848108 14,26.4930049 C13.9801225,27.580173 13.7612093,27.9270622 13.7612093,27.9270622 C13.5621736,28.3433494 12.4475565,29.5461137 12.1290821,29.8930028 C11.9300464,30.1474958 11.9698883,29.9393018 12.1888015,29.3611196 C12.4475565,28.6902385 13.183893,27.5800722 12.8256635,26.4930049 C12.4873984,25.4291374 12.4674341,23.9487811 12.7261891,23.2087038 C12.7261891,23.1625057 12.8058728,22.7230187 12.8456279,23.2781018 C12.7859085,24.5039652 13.144138,25.2209434 13.2635767,25.4753355 C13.3034186,25.5679335 13.4427349,25.7760266 13.5422093,25.9148226 Z"/>
  </g>
</svg>
